images/icon-calculator.svg

<svg xmlns="http://www.w3.org/2000/svg" width="64" height="64"><g fill="none"><path fill="#474F54" d="M64 0v41.25l-3.75 3.875H3.75L0 41.25V0z"/><path fill="#32393F" d="M64 0v41.25l-3.75 3.875H32V0z"/><path fill="#DADAE5" d="M22.625 50.875h18.75v11.25h-18.75z"/><path fill="#C9C9D3" d="M32 50.875h9.375v11.25H32z"/><path fill="#EFEFF4" d="M0 41.25h64v11.5H0z"/><path fill="#DADAE5" d="M32 41.25h32v11.5H32z"/><path fill="#EFEFF4" d="M15.125 60.25h33.75V64h-33.75z"/><path fill="#DADAE5" d="M32 60.25h16.875V64H32z"/><path fill="#549EF2" d="M20.75 7.5c-7.236 0-13.125 5.889-13.125 13.125S13.514 33.75 20.75 33.75s13.125-5.889 13.125-13.125S27.986 7.5 20.75 7.5zm0 18.75a5.631 5.631 0 01-5.625-5.625A5.631 5.631 0 0120.75 15a5.631 5.631 0 015.625 5.625 5.631 5.631 0 01-5.625 5.625z"/><g fill="#377FD2"><path d="M45.125 7.5H56.5v3.75H45.125zM37.625 7.5h3.75v3.75h-3.75zM45.125 22.5H56.5v3.75H45.125zM37.625 22.5h3.75v3.75h-3.75zM37.625 15H56.5v3.75H37.625zM37.625 30H56.5v3.75H37.625z"/></g></g></svg>

<svg version="1.2" xmlns="http://www.w3.org/2000/svg" viewBox="0 0 64 64" width="64" height="64">
	<style>
		.s0 { fill: #474f54 } 
		.s1 { fill: #32393f } 
		.s2 { fill: #dadae5 } 
		.s3 { fill: #c9c9d3 } 
		.s4 { fill: #efeff4 } 
		.s5 { fill: #549ef2 } 
		.s6 { fill: #377fd2 } 
	</style>
	<g>
		<path class="s0" d="m64 0v41.25l-3.75 3.88h-56.5l-3.75-3.88v-41.25z"/>
		<path class="s1" d="m64 0v41.25l-3.75 3.88h-28.25v-45.13z"/>
		<path class="s2" d="m22.63 50.88l18.75-0.01v11.25h-18.75z"/>
		<path class="s3" d="m32 50.88l9.38-0.01-0.01 11.25h-9.37z"/>
		<path class="s4" d="m0 41.25h64v11.5h-64z"/>
		<path class="s2" d="m32 41.25h32v11.5h-32z"/>
		<path class="s4" d="m15.13 60.25h33.74v3.75h-33.75z"/>
		<path class="s2" d="m32 60.25h16.88v3.75h-16.88z"/>
		<path class="s5" d="m20.75 7.5c-7.24 0-13.13 5.89-13.13 13.13 0.01 7.23 5.89 13.12 13.13 13.12 7.24 0 13.13-5.89 13.13-13.13-0.01-7.23-5.89-13.12-13.13-13.12zm0 18.75q-1.12 0-2.15-0.43-1.03-0.43-1.83-1.22-0.78-0.79-1.22-1.82-0.42-1.04-0.42-2.15 0-1.12 0.42-2.16 0.44-1.03 1.22-1.82 0.8-0.79 1.83-1.22 1.03-0.43 2.15-0.43 1.12 0 2.15 0.43 1.03 0.43 1.83 1.22 0.78 0.79 1.22 1.82 0.42 1.04 0.43 2.16-0.01 1.11-0.43 2.15-0.44 1.03-1.22 1.82-0.8 0.79-1.83 1.22-1.03 0.43-2.15 0.43z"/>
		<path id="Shape 1" fill-rule="evenodd" class="s5" d="m12 7h18c2.76 0 5 2.24 5 5v18c0 2.76-2.24 5-5 5h-18c-2.76 0-5-2.24-5-5v-18c0-2.76 2.24-5 5-5z"/>
		<g>
			<path class="s6" d="m45.13 7.5h11.37v3.75h-11.38zm-7.5 0h3.75v3.75h-3.75zm7.5 15h11.38v3.75h-11.38zm-7.5 0h3.75v3.75h-3.75zm0-7.5h18.88v3.75h-18.88zm0 15h18.88v3.75h-18.88z"/>
		</g>
	</g>
</svg>
